src/assets/selectIconsSpells/raggio_1.svg

<svg xmlns="http://www.w3.org/2000/svg" viewBox="0 0 512 512"><path d="M0 0h512v512H0z"/><path fill="#fff" d="M84.04 18.37c-12.7 8.85-20.6 27.75-20.5 45.98.19 34.2 27.8 61.95 61.86 61.95 27 0 49.9-17.2 58.4-41.25.8 5.2 1.2 10.4 1.2 15.75 0 59.2-47.9 107.1-107.06 107.1-22.1 0-42.54-6.7-59.58-18.1v21.8c17.75 9.5 38.08 15 59.58 15 69.26 0 125.76-56.5 125.76-125.8 0-31.47-11.7-60.33-30.8-82.43-85.84.75-12.9.53-88.86 0zM226.5 102.8c0 80.7-65.5 146-146.36 146-22.1 0-43.01-4.9-61.78-13.6v20.4c18.12 8.5 44.48 12.3 65.18 11.9l71.06 98.9-12.1-88.5L263 493.6h21.4L160.9 272.5l172 221.1h160.7V338.5L304.2 196.6l130.1 43-169.2-113.7 68.7 6.6-89.1-42.45c-2-26.01-10.1-50.4-22.9-71.67h-22.3c15.9 27.68 26.7 58.12 27 84.42zm-188.16 5.1c-7.72 0-14.74 3-19.98 7.9v42.9c5.24 4.9 12.26 7.9 19.98 7.9 16.2 0 29.3-13.2 29.3-29.4s-13.1-29.3-29.3-29.3z"/></svg>

<?xml version="1.0" encoding="UTF-8" standalone="no"?>
<!DOCTYPE svg PUBLIC "-//W3C//DTD SVG 1.1//EN" "http://www.w3.org/Graphics/SVG/1.1/DTD/svg11.dtd">
<svg width="100%" height="100%" viewBox="0 0 512 512" version="1.1" xmlns="http://www.w3.org/2000/svg" xmlns:xlink="http://www.w3.org/1999/xlink" xml:space="preserve" xmlns:serif="http://www.serif.com/" style="fill-rule:evenodd;clip-rule:evenodd;stroke-linejoin:round;stroke-miterlimit:2;">
    <rect x="0" y="0" width="512" height="512" style="fill-rule:nonzero;"/>
    <path d="M226.5,102.8C226.5,183.5 161,248.8 80.14,248.8C58.04,248.8 37.13,243.9 18.36,235.2L18.36,255.6C36.48,264.1 62.84,267.9 83.54,267.5L154.6,366.4L142.5,277.9L263,493.6L284.4,493.6L160.9,272.5L332.9,493.6L493.6,493.6L493.6,338.5L304.2,196.6L434.3,239.6L265.1,125.9L333.8,132.5L244.7,90.05C242.7,64.04 234.6,39.65 221.8,18.38L199.5,18.38C215.4,46.06 226.2,76.5 226.5,102.8Z" style="fill:url(#_Linear1);fill-rule:nonzero;"/>
    <path d="M84.04,18.37C160,18.9 87.06,19.12 172.9,18.37C192,40.47 203.7,69.33 203.7,100.8C203.7,170.1 147.2,226.6 77.94,226.6C56.44,226.6 36.11,221.1 18.36,211.6L18.36,189.8C35.4,201.2 55.84,207.9 77.94,207.9C137.1,207.9 185,160 185,100.8C185,95.45 184.6,90.25 183.8,85.05C175.3,109.1 152.4,126.3 125.4,126.3C91.34,126.3 63.73,98.55 63.54,64.35C63.44,46.12 71.34,27.22 84.04,18.37ZM38.34,107.9C54.54,107.9 67.64,121 67.64,137.2C67.64,153.4 54.54,166.6 38.34,166.6C30.62,166.6 23.6,163.6 18.36,158.7L18.36,115.8C23.6,110.9 30.62,107.9 38.34,107.9Z" style="fill:rgb(86,0,255);"/>
    <defs>
        <linearGradient id="_Linear1" x1="0" y1="0" x2="1" y2="0" gradientUnits="userSpaceOnUse" gradientTransform="matrix(475.24,0,0,475.22,18.36,255.99)"><stop offset="0" style="stop-color:rgb(0,255,218);stop-opacity:1"/><stop offset="0.55" style="stop-color:rgb(52,255,172);stop-opacity:1"/><stop offset="1" style="stop-color:rgb(246,255,0);stop-opacity:1"/></linearGradient>
    </defs>
</svg>
